!!!!SEGMENT: pl-wtm--r-995--001-003_krogulski-jozef-wladyslaw--msza-pasterska-graduale.krn
!!!cenid: 18xx:2085
!!!COM: Krogulski, Józef Władysław
!!!COM-rismID: pe30001797
!!!CDT: 1815/10/04-1842/01/09
!!!CNT: Polish
!!!OPR: Msza pasterska
!!!OTL: Graduale
!!!OMV: 003
!!!PDT:
!!!AGN: Sacred; Mass
!!!YEC: Copyright 2022 Narodowy Instytut Fryderyka Chopina (https://polishscores.org)
!!!YEM: License CC-BY-4.0 (https://creativecommons.org/licenses/by/4.0)
!!!SMS-siglum: PL-Wtm
!!!SMS-shelfmark: R 995
!!!SMS-shelfwork: 001-003 M
!!!SMS-variant:
!!!SMS-altvar:
!!!NIFC-rismSourceID: 1001083272
!!!NIFC-rismChildID: 1001083272
!!!NIFC-islandoraID:
!!!URL-pdf-islandora:
!!!URL-scan:
!!!IIIF:
!!!ONB-nifc: UWAGA: części Mszy: 1. Kyrie, 2. Gloria, 3. Graduale, 4. Credo, 5. Offertorium, 6. Sanctus, 7. Benedictus, 8. Agnus Dei, 9. Dona nobis
!!!AIN: 1 bass 1 organ 2 soprn 1 tenor
!!!key: F
!!!OMD: Allegretto.
**kern	**kern	**dynam	**kern	**text	**mod-text	**dynam	**mod-dynam	**kern	**text	**mod-text	**dynam	**mod-dynam	**kern	**text	**mod-text	**dynam	**mod-dynam	**kern	**text	**dynam	**mod-dynam
*part5	*part5	*	*part4	*	*	*	*	*part3	*	*	*	*	*part2	*	*	*	*	*part1	*	*	*
*staff6	*staff5	*	*staff4	*	*	*	*	*staff3	*	*	*	*	*staff2	*	*	*	*	*staff1	*	*	*
*Iorgan	*Iorgan	*	*Ibass	*	*	*	*	*Itenor	*	*	*	*	*Isoprn	*	*	*	*	*Isoprn	*	*	*
*I"Organ	*I"Organ	*	*I"Baſsi	*	*	*	*	*I"Tenore	*	*	*	*	*I"Soprano 2.	*	*	*	*	*I"Soprano 1.	*	*	*
*mI"Organo	*mI"Organo	*	*mI"Basso	*	*	*	*	*	*	*	*	*	*mI"Soprano II	*	*	*	*	*mI"Soprano I	*	*	*
*I'org	*I'org	*	*I'B	*	*	*	*	*I'T	*	*	*	*	*I'S 2	*	*	*	*	*I'S 1	*	*	*
*ICklav	*ICklav	*	*ICvox	*	*	*	*	*ICvox	*	*	*	*	*ICvox	*	*	*	*	*ICvox	*	*	*
!	!	!	!	!	!	!	!	!LO:MO:mod=*null:null	!	!	!	!	!	!	!	!	!	!	!	!	!
*	*	*	*	*	*	*	*	*ITrd8c12	*	*	*	*	*	*	*	*	*	*	*	*	*
*clefF4	*clefG2	*	*clefF4	*	*	*	*	*clefG2	*	*	*	*	*clefG2	*	*	*	*	*clefG2	*	*	*
*k[b-]	*k[b-]	*	*k[b-]	*	*	*	*	*k[b-]	*	*	*	*	*k[b-]	*	*	*	*	*k[b-]	*	*	*
*F:	*F:	*	*F:	*	*	*	*	*F:	*	*	*	*	*F:	*	*	*	*	*F:	*	*	*
*M6/8	*M6/8	*	*M6/8	*	*	*	*	*M6/8	*	*	*	*	*M6/8	*	*	*	*	*M6/8	*	*	*
=1	=1	=1	=1	=1	=1	=1	=1	=1	=1	=1	=1	=1	=1	=1	=1	=1	=1	=1	=1	=1	=1
*all\right	*all\right	*	*all\right	*	*	*	*	*all\right	*	*	*	*	*all\right	*	*	*	*	*all\right	*	*	*
*	*2\right	*	*	*	*	*	*	*	*	*	*	*	*	*	*	*	*	*	*	*	*
2.r	[2.ccc\	.	2.r	.	.	.	.	2.r	.	.	.	.	2.r	.	.	.	.	2.r	.	.	.
=2	=2	=2	=2	=2	=2	=2	=2	=2	=2	=2	=2	=2	=2	=2	=2	=2	=2	=2	=2	=2	=2
4e 4B- 4G 4F\	8ccc\L]	.	2.r	.	.	.	.	2.r	.	.	.	.	2.r	.	.	.	.	2.r	.	.	.
.	8ddd\	.	.	.	.	.	.	.	.	.	.	.	.	.	.	.	.	.	.	.	.
8e 8B- 8G 8F\	8ccc\J	.	.	.	.	.	.	.	.	.	.	.	.	.	.	.	.	.	.	.	.
*rep	*	*	*	*	*	*	*	*	*	*	*	*	*	*	*	*	*	*	*	*	*
4e 4B- 4G 4F\	8bb-\L	.	.	.	.	.	.	.	.	.	.	.	.	.	.	.	.	.	.	.	.
.	8gg\	.	.	.	.	.	.	.	.	.	.	.	.	.	.	.	.	.	.	.	.
8e 8B- 8G 8F\	8aa\J	.	.	.	.	.	.	.	.	.	.	.	.	.	.	.	.	.	.	.	.
*Xrep	*	*	*	*	*	*	*	*	*	*	*	*	*	*	*	*	*	*	*	*	*
=3	=3	=3	=3	=3	=3	=3	=3	=3	=3	=3	=3	=3	=3	=3	=3	=3	=3	=3	=3	=3	=3
4f 4c 4A 4F\	4ff\	.	2.r	.	.	.	.	2.r	.	.	.	.	2.r	.	.	.	.	4r	.	.	.
8c 8A 8F\	16ee\LL	.	.	.	.	.	.	.	.	.	.	.	.	.	.	.	.	8r	.	.	.
.	16dd\JJ	.	.	.	.	.	.	.	.	.	.	.	.	.	.	.	.	.	.	.	.
!	!	!	!	!	!	!	!	!	!	!	!	!	!	!	!	!	!	!	!LO:MO:mod=Ius-	!LO:DY:b:rj	!
4c 4A 4F\	[>4.cc\	.	.	.	.	.	.	.	.	.	.	.	.	.	.	.	.	[4.cc\	Ju-	p	p
8c 8A 8F\	.	.	.	.	.	.	.	.	.	.	.	.	.	.	.	.	.	.	.	.	.
=4	=4	=4	=4	=4	=4	=4	=4	=4	=4	=4	=4	=4	=4	=4	=4	=4	=4	=4	=4	=4	=4
4e 4B- 4G 4F\	8cc\]	.	2.r	.	.	.	.	2.r	.	.	.	.	2.r	.	.	.	.	8cc\]	.	.	.
!	!	!	!	!	!	!	!	!	!	!	!	!	!	!	!	!	!	!	!LO:MO:mod=-tus	!	!
.	8r	.	.	.	.	.	.	.	.	.	.	.	.	.	.	.	.	8dd\	-stus	.	.
8e 8B- 8G 8F\	8r	.	.	.	.	.	.	.	.	.	.	.	.	.	.	.	.	8cc\	ut	.	.
4e 4B- 4G 4F\	4r	.	.	.	.	.	.	.	.	.	.	.	.	.	.	.	.	8b-/	pal-	.	.
.	.	.	.	.	.	.	.	.	.	.	.	.	.	.	.	.	.	8g/	-ma	.	.
8e 8B- 8G 8F\	8r	.	.	.	.	.	.	.	.	.	.	.	.	.	.	.	.	8a/	flo-	.	.
=5	=5	=5	=5	=5	=5	=5	=5	=5	=5	=5	=5	=5	=5	=5	=5	=5	=5	=5	=5	=5	=5
4f 4A 4F\	2.r	.	2.r	.	.	.	.	2.r	.	.	.	.	2.r	.	.	.	.	(4f/	-re-	.	.
8c 8A 8F\	.	.	.	.	.	.	.	.	.	.	.	.	.	.	.	.	.	8dd\)	.	.	.
4c 4A 4F\	.	.	.	.	.	.	.	.	.	.	.	.	.	.	.	.	.	4cc\	-bit	.	.
8c 8A 8F\	.	.	.	.	.	.	.	.	.	.	.	.	.	.	.	.	.	8cc\	ut	.	.
=6	=6	=6	=6	=6	=6	=6	=6	=6	=6	=6	=6	=6	=6	=6	=6	=6	=6	=6	=6	=6	=6
4e 4B- 4G 4F\	2.r	.	2.r	.	.	.	.	2.r	.	.	.	.	2.r	.	.	.	.	8cc\L	pal-	.	.
.	.	.	.	.	.	.	.	.	.	.	.	.	.	.	.	.	.	8b-\	.	.	.
8e 8B- 8G 8F\	.	.	.	.	.	.	.	.	.	.	.	.	.	.	.	.	.	8a\J	.	.	.
4e 4B- 4G 4F\	.	.	.	.	.	.	.	.	.	.	.	.	.	.	.	.	.	8g/L	-ma	.	.
.	.	.	.	.	.	.	.	.	.	.	.	.	.	.	.	.	.	8a/J	.	.	.
8e 8B- 8G 8F\	.	.	.	.	.	.	.	.	.	.	.	.	.	.	.	.	.	8g/	flo-	.	.
=7	=7	=7	=7	=7	=7	=7	=7	=7	=7	=7	=7	=7	=7	=7	=7	=7	=7	=7	=7	=7	=7
4f 4c 4A 4F\	4r	.	4r	.	.	.	.	4r	.	.	.	.	4r	.	.	.	.	4.f/	-re-	.	.
8c 8A 8F\	8r	.	8r	.	.	.	.	8r	.	.	.	.	8r	.	.	.	.	.	.	.	.
!	!	!	!	!	!	!LO:DY:b	!	!	!	!	!LO:DY:b	!	!	!	!	!LO:DY:b	!	!	!	!	!
4c 4A 4F\	[>4.ccc\	.	8r	.	.	p	.	8r	.	.	p	.	8r	.	.	p	.	8f/	-bit	.	.
.	.	.	8F\	.	si-	.	p	8c\	si-	si-	.	p	8a/	.	si-	.	p	8cc\	si-	.	.
8c 8A 8F\	.	.	8F\	.	-cut	.	.	8c\	-cut	-cut	.	.	8a/	.	-cut	.	.	8cc\	-cut	.	.
=8	=8	=8	=8	=8	=8	=8	=8	=8	=8	=8	=8	=8	=8	=8	=8	=8	=8	=8	=8	=8	=8
4e 4B- 4G 4F\	8ccc\L]	.	4.F\	.	ce-	.	.	4.B-\	ce-	ce-	.	.	4.g/	.	ce-	.	.	4.cc\	ce-	.	.
.	8ddd\	.	.	.	.	.	.	.	.	.	.	.	.	.	.	.	.	.	.	.	.
8e 8B- 8G 8F\	8ccc\J	.	.	.	.	.	.	.	.	.	.	.	.	.	.	.	.	.	.	.	.
4e 4B- 4G 4F\	8bb-\L	.	4F\	.	-drus	.	.	4B-\	-drus	-drus	.	.	4g/	.	-drus	.	.	4cc\	-drus	.	.
.	8gg\	.	.	.	.	.	.	.	.	.	.	.	.	.	.	.	.	.	.	.	.
8f 8c 8A 8F\	8aa\J	.	8F\	.	Li-	.	.	8c\	Li-	Li-	.	.	8a/	.	Li-	.	.	8cc\	Li-	.	.
!!LO:LB:g=original
=9	=9	=9	=9	=9	=9	=9	=9	=9	=9	=9	=9	=9	=9	=9	=9	=9	=9	=9	=9	=9	=9
4c 4A 4F\	4ff\	.	4.F\	.	-ba-	.	.	4.A/	.	-ba-	.	.	4.f/	.	-ba-	.	.	4.cc\	-ba-	.	.
8c 8A 8F\	16ee\LL	.	.	.	.	.	.	.	.	.	.	.	.	.	.	.	.	.	.	.	.
.	16dd\JJ	.	.	.	.	.	.	.	.	.	.	.	.	.	.	.	.	.	.	.	.
4c 4A 4F\	8cc\	.	8F\	.	-ni	.	.	8A/	.	-ni	.	.	8f/	.	-ni	.	.	8cc\	-ni	.	.
.	8r	.	8r	.	.	.	.	8r	.	.	.	.	8r	.	.	.	.	8r	.	.	.
8c 8A 8F\	8r	.	8r	.	.	.	.	8r	.	.	.	.	8r	.	.	.	.	8r	.	.	.
=10	=10	=10	=10	=10	=10	=10	=10	=10	=10	=10	=10	=10	=10	=10	=10	=10	=10	=10	=10	=10	=10
4F 4FF\	4e 4B- 4G/	.	2.r	.	.	.	.	8c\	Ju-	Ius-	.	.	2.r	.	.	.	.	2.r	.	.	.
.	.	.	.	.	.	.	.	8d\	-stus	-tus	.	.	.	.	.	.	.	.	.	.	.
8F 8FF\	8e 8B- 8G/	.	.	.	.	.	.	8c\	ut	ut	.	.	.	.	.	.	.	.	.	.	.
4F 4FF\	4e 4B- 4G/	.	.	.	.	.	.	8B-/	pal-	pal-	.	.	.	.	.	.	.	.	.	.	.
.	.	.	.	.	.	.	.	8G/	-ma	-ma	.	.	.	.	.	.	.	.	.	.	.
8F 8FF\	8e 8B- 8G/	.	.	.	.	.	.	8A/	flo-	flo-	.	.	.	.	.	.	.	.	.	.	.
=11	=11	=11	=11	=11	=11	=11	=11	=11	=11	=11	=11	=11	=11	=11	=11	=11	=11	=11	=11	=11	=11
*rep	*	*	*	*	*	*	*	*	*	*	*	*	*	*	*	*	*	*	*	*	*
4F 4FF\	4f 4A/	.	2.r	.	.	.	.	(4F/	-re-	-re-	.	.	2.r	.	.	.	.	2.r	.	.	.
8F 8FF\	8f 8A/	.	.	.	.	.	.	8d/)	.	.	.	.	.	.	.	.	.	.	.	.	.
4F 4FF\	4f 4c 4A/	.	.	.	.	.	.	4c\	-bit	-bit	.	.	.	.	.	.	.	.	.	.	.
8F 8FF\	8f 8c 8A/	.	.	.	.	.	.	8c\	ut	ut	.	.	.	.	.	.	.	.	.	.	.
*Xrep	*	*	*	*	*	*	*	*	*	*	*	*	*	*	*	*	*	*	*	*	*
=12	=12	=12	=12	=12	=12	=12	=12	=12	=12	=12	=12	=12	=12	=12	=12	=12	=12	=12	=12	=12	=12
*rep	*	*	*	*	*	*	*	*	*	*	*	*	*	*	*	*	*	*	*	*	*
4F 4FF\	4e 4B- 4G/	.	2.r	.	.	.	.	8c\L	pal-	pal-	.	.	2.r	.	.	.	.	2.r	.	.	.
.	.	.	.	.	.	.	.	8B-\	.	.	.	.	.	.	.	.	.	.	.	.	.
8F 8FF\	8e 8B- 8G/	.	.	.	.	.	.	8A\J	.	.	.	.	.	.	.	.	.	.	.	.	.
*	*rep	*	*	*	*	*	*	*	*	*	*	*	*	*	*	*	*	*	*	*	*
4F 4FF\	4e 4B- 4G/	.	.	.	.	.	.	8G/L	-ma	-ma	.	.	.	.	.	.	.	.	.	.	.
.	.	.	.	.	.	.	.	8A/J	.	.	.	.	.	.	.	.	.	.	.	.	.
8F 8FF\	8e 8B- 8G/	.	.	.	.	.	.	8G/	flo-	flo-	.	.	.	.	.	.	.	.	.	.	.
*Xrep	*Xrep	*	*	*	*	*	*	*	*	*	*	*	*	*	*	*	*	*	*	*	*
=13	=13	=13	=13	=13	=13	=13	=13	=13	=13	=13	=13	=13	=13	=13	=13	=13	=13	=13	=13	=13	=13
4F 4FF\	4f 4A/	.	4r	.	.	.	.	4.F/	-re-	-re-	.	.	4r	.	.	.	.	4r	.	.	.
8F 8FF\	8f 8c 8A/	.	8r	.	.	.	.	.	.	.	.	.	8r	.	.	.	.	8r	.	.	.
4F 4FF\	8fL 8c 8A/	.	8r	.	.	.	.	8F/	-bit	-bit	.	.	8r	.	.	.	.	8r	.	.	.
.	8a 8f/	.	8F\	.	si-	.	.	8A/	si-	si-	.	.	8f/	.	si-	.	.	8a/	si-	.	.
8D 8DD/	8bnJ 8f/	.	8D\	.	-cut	.	.	8G/	-cut	-cut	.	.	8f/	.	-cut	.	.	8bn/	-cut	.	.
=14	=14	=14	=14	=14	=14	=14	=14	=14	=14	=14	=14	=14	=14	=14	=14	=14	=14	=14	=14	=14	=14
4C 4CC/	4cc 4e\	.	[<4.C/	.	ce-	.	.	[<4.G/	ce-	ce-	.	.	[<4.e/	.	ce-	.	.	[>4.cc\	ce-	.	.
8C 8CC/	8cc 8e\	.	.	.	.	.	.	.	.	.	.	.	.	.	.	.	.	.	.	.	.
8CL 8CC/	8ccL 8e\	.	8C/]	.	.	.	.	8G/]	.	.	.	.	8e/]	.	.	.	.	8cc\]	.	.	.
8F 8FF/	8a 8f\	.	8F\	.	-drus	.	.	8A/	-drus	-drus	.	.	8f/	.	-drus	.	.	8a/	-drus	.	.
8DJ 8DD/	8bnJ 8f\	.	8D\	.	Li-	.	.	8G/	li-	Li-	.	.	8f/	.	Li-	.	.	8bn\	Li-	.	.
=15	=15	=15	=15	=15	=15	=15	=15	=15	=15	=15	=15	=15	=15	=15	=15	=15	=15	=15	=15	=15	=15
4C 4CC/	4cc 4e\	.	(<4.C/	.	-ba-	.	.	(<4.G/	-ba-	-ba-	.	.	(<4.e/	.	-ba-	.	.	[>4.cc\	-ba-	.	.
8C 8CC/	8cc 8e\	.	.	.	.	.	.	.	.	.	.	.	.	.	.	.	.	.	.	.	.
!	!	!	!LO:SIC:o=4F/	!	!	!	!	!	!	!	!	!	!	!	!	!	!	!	!	!	!
4F 4FF/	4a 4f/	.	4F)	.	.	.	.	4A/)	.	.	.	.	4.f/)	.	.	.	.	8cc\L]	.	.	.
.	.	.	.	.	.	.	.	.	.	.	.	.	.	.	.	.	.	8a\	.	.	.
!	!	!	!LO:SIC:o=8D/)	!	!	!	!	!	!	!	!	!	!	!	!	!	!	!	!	!	!
8D 8DD/	8bn 8f/	.	8D	.	.	.	.	8G/	.	.	.	.	.	.	.	.	.	8bn\J	.	.	.
=16	=16	=16	=16	=16	=16	=16	=16	=16	=16	=16	=16	=16	=16	=16	=16	=16	=16	=16	=16	=16	=16
[>2.C [<2.CC/	[>2.cc [<2.e\	.	4C/	.	-ni	.	.	4G/	-ni	-ni	.	.	4e/	.	-ni	.	.	4cc\	-ni	.	.
.	.	.	8C/	.	mul-	.	.	8G/	mul-	mul-	.	.	8e/	.	mul-	.	.	8cc\	mul-	.	.
.	.	.	4C/	.	-ti-	.	.	4G/	-ti-	-ti-	.	.	4e/	.	-ti-	.	.	4cc\	-ti-	.	.
.	.	.	8C/	.	-pli-	.	.	8G/	-pli-	-pli-	.	.	8e/	.	-pli-	.	.	8cc\	-pli-	.	.
=17	=17	=17	=17	=17	=17	=17	=17	=17	=17	=17	=17	=17	=17	=17	=17	=17	=17	=17	=17	=17	=17
2.C] 2.CC/]	2.cc] 2.e/]	.	4C/	.	-ca-	.	.	4G/	-ca-	-ca-	.	.	4e/	.	-ca-	.	.	4cc\	-ca-	.	.
.	.	.	8C/	.	-bi-	.	.	8G/	-bi-	-bi-	.	.	8e/	.	-bi-	.	.	8cc\	-bi-	.	.
.	.	.	4C/	.	-tur	.	.	4G/	-tur	-tur	.	.	4e/	.	-tur	.	.	4cc\	-tur	.	.
.	.	.	8C/	.	in	.	.	8G/	in	in	.	.	8e/	.	in	.	.	8ee\	in	.	.
!!LO:PB:g=original
=18	=18	=18	=18	=18	=18	=18	=18	=18	=18	=18	=18	=18	=18	=18	=18	=18	=18	=18	=18	=18	=18
!	!	!	!	!	!	!	!	!	!	!	!	!	!	!	!	!	!	!LO:TX:a:t=Solo.	!	!	!
!	!	!	!	!	!	!LO:DY:b:rj	!	!	!	!	!LO:DY:b:rj	!	!	!	!	!LO:DY:b:rj	!	!	!	!LO:DY:b:rj	!
8G 8GG\	8cc 8e/	.	8GG/	.	do-	f	f	8c\	do-	do-	f	f	8e/	do-	do-	f	f	8gg\L	do-	f	f
8r	8r	.	8r	.	.	.	.	8r	.	.	.	.	8r	.	.	.	.	16ff\L	.	.	.
.	.	.	.	.	.	.	.	.	.	.	.	.	.	.	.	.	.	16ee\	.	.	.
8r	8r	.	8r	.	.	.	.	8r	.	.	.	.	8r	.	.	.	.	16dd\	.	.	.
.	.	.	.	.	.	.	.	.	.	.	.	.	.	.	.	.	.	16cc\JJ	.	.	.
4r	4r	.	4r	.	.	.	.	4r	.	.	.	.	4r	.	.	.	.	16bn/LL	.	.	.
.	.	.	.	.	.	.	.	.	.	.	.	.	.	.	.	.	.	16cc/	.	.	.
.	.	.	.	.	.	.	.	.	.	.	.	.	.	.	.	.	.	16b/	.	.	.
.	.	.	.	.	.	.	.	.	.	.	.	.	.	.	.	.	.	16a/	.	.	.
8r	8r	.	8r	.	.	.	.	8r	.	.	.	.	8r	.	.	.	.	16g/	.	.	.
.	.	.	.	.	.	.	.	.	.	.	.	.	.	.	.	.	.	16f#X/JJ	.	.	.
=19	=19	=19	=19	=19	=19	=19	=19	=19	=19	=19	=19	=19	=19	=19	=19	=19	=19	=19	=19	=19	=19
8G 8GG\	8bn 8f 8d\	.	8G\	.	.	.	.	8d\	-mo	-mo	.	.	8f/	-mo	-mo	.	.	16g\LL	.	.	.
.	.	.	.	.	.	.	.	.	.	.	.	.	.	.	.	.	.	16bn\	.	.	.
8r	8r	.	8r	.	.	.	.	8r	.	.	.	.	8r	.	.	.	.	16dd\	.	.	.
.	.	.	.	.	.	.	.	.	.	.	.	.	.	.	.	.	.	16b\	.	.	.
8r	8r	.	8r	.	.	.	.	8r	.	.	.	.	8r	.	.	.	.	16ffn\	.	.	.
.	.	.	.	.	.	.	.	.	.	.	.	.	.	.	.	.	.	16dd\JJ	.	.	.
4r	4r	.	4r	.	.	.	.	4r	.	.	.	.	4r	.	.	.	.	4aa\	.	.	.
8r	8r	.	8r	.	.	.	.	8r	.	.	.	.	8r	.	.	.	.	8gg\	-mo	.	.
=20	=20	=20	=20	=20	=20	=20	=20	=20	=20	=20	=20	=20	=20	=20	=20	=20	=20	=20	=20	=20	=20
*2\right	*	*	*	*	*	*	*	*	*	*	*	*	*	*	*	*	*	*	*	*	*
!	!	!	!	!	!	!	!	!	!	!	!	!	!	!	!	!	!	!LO:MO:mod=!LO&colon;TX&colon;a&colon;t=Tutti	!	!	!
!	!	!	!	!	!	!	!	!	!	!	!	!	!	!	!	!	!	!LO:TX:a:t=tutto	!	!	!
2.G 2.GG\	4cc 4e\	.	[>4.G\	.	Do-	.	.	(>4.c\	.	Do-	.	.	(<4.e/	Do-	Do-	.	.	(>4.cc\	Do-	.	.
.	8cc 8e\	.	.	.	.	.	.	.	.	.	.	.	.	.	.	.	.	.	.	.	.
.	4ee 4g\	.	4G\]	.	.	.	.	4G\)	.	.	.	.	4g/)	.	.	.	.	4ee\)	.	.	.
.	8dd 8f\	.	8G\	.	-mi-	.	.	8B\	.	-mi-	.	.	8f/	-mi-	-mi-	.	.	8dd\	-mi-	.	.
=21	=21	=21	=21	=21	=21	=21	=21	=21	=21	=21	=21	=21	=21	=21	=21	=21	=21	=21	=21	=21	=21
[>2.C [<2.CC/	4cc 4e\	.	4C/	.	-ni	.	.	4c\	.	-ni	.	.	4e/	-ni	-ni	.	.	4cc\	-ni	.	.
.	8r	.	8C/	.	in	.	.	8r	.	.	.	.	8r	.	.	.	.	8r	.	.	.
.	4r	.	4C/	.	do-	.	.	4r	.	.	.	.	4r	.	.	.	.	4r	.	.	.
.	8cc 8e\	.	8C/	.	-mo	.	.	8c\	.	in	.	.	8e/	in	in	.	.	8cc\	in	.	.
=22	=22	=22	=22	=22	=22	=22	=22	=22	=22	=22	=22	=22	=22	=22	=22	=22	=22	=22	=22	=22	=22
!	!	!	!	!	!	!	!	!	!	!	!	!	!	!	!	!	!	!	!LO:MO:mod=do-	!	!
2.C_> 2.CC/_<	8b-XL 8g\	.	[<4.C/	.	Do-	.	.	8B-X\L	.	do-	.	.	8g/L	Do-	do-	.	.	[>4.cc\	Do-	.	.
.	8cc 8a\	.	.	.	.	.	.	8c\J	.	.	.	.	8a/J	.	.	.	.	.	.	.	.
.	8b-J 8g\	.	.	.	.	.	.	8B-\	.	-mo	.	.	8g/	-mo	-mo	.	.	.	.	.	.
.	8aL 8f/	.	4C/]	.	.	.	.	8A\L	.	Do-	.	.	8f/L	Do-	Do-	.	.	4cc\]	.	.	.
.	8b- 8g/	.	.	.	.	.	.	8B-\J	.	.	.	.	8g/J	.	.	.	.	.	.	.	.
.	8aJ 8f/	.	8C/	.	-mi-	.	.	8A\	.	-mi-	.	.	8f/	-mi-	-mi-	.	.	8cc\	-mo	.	.
=23	=23	=23	=23	=23	=23	=23	=23	=23	=23	=23	=23	=23	=23	=23	=23	=23	=23	=23	=23	=23	=23
2.C_> 2.CC/_<	4g 4e/	.	4C/	.	-ni	.	.	4G/	.	-ni	.	.	4e/	-ni	-ni	.	.	4cc\	Do-	.	.
.	8r	.	8r	.	.	.	.	8r	.	.	.	.	8r	.	.	.	.	8dd\	-mi-	.	.
.	4r	.	4r	.	.	.	.	4r	.	.	.	.	4r	.	.	.	.	4cc\	-ni	.	.
.	8cc 8e\	.	8C/	.	in	.	.	8c\	.	in	.	.	8e/	in	in	.	.	8cc\	in	.	.
=24	=24	=24	=24	=24	=24	=24	=24	=24	=24	=24	=24	=24	=24	=24	=24	=24	=24	=24	=24	=24	=24
2.C_> 2.CC/_<	8b-L 8g/	.	4C/	.	do-	.	.	8B-\L	.	do-	.	.	8g/L	do-	do-	.	.	[>4.cc\	do-	.	.
.	8cc 8a/	.	.	.	.	.	.	8c\J	.	.	.	.	8a/J	.	.	.	.	.	.	.	.
.	8b-J 8g/	.	8C/	.	-mo	.	.	8B-\	.	-mo	.	.	8g/	-mo	-mo	.	.	.	.	.	.
.	8aL 8f/	.	4C/	.	Do-	.	.	8A\L	.	Do-	.	.	8f/L	Do-	Do-	.	.	4cc\]	.	.	.
.	8b- 8g/	.	.	.	.	.	.	8B-\J	.	.	.	.	8g/J	.	.	.	.	.	.	.	.
.	8aJ 8f/	.	8C/	.	-mi-	.	.	8A\	.	-mi-	.	.	8f/	-mi-	-mi-	.	.	8cc\	-mo	.	.
=25	=25	=25	=25	=25	=25	=25	=25	=25	=25	=25	=25	=25	=25	=25	=25	=25	=25	=25	=25	=25	=25
8C] 8CC/]	8g 8e/	.	8C/	.	-ni	.	.	8G/	.	-ni	.	.	8e/	-ni	-ni	.	.	8cc\L	Do-	.	.
8r	8r	.	8r	.	.	.	.	8r	.	.	.	.	8r	.	.	.	.	8ee\	.	.	.
8r	8r	.	8r	.	.	.	.	8r	.	.	.	.	8r	.	.	.	.	8dd\J	.	.	.
4r	4r	.	4r	.	.	.	.	4r	.	.	.	.	4r	.	.	.	.	[>4.cc\	.	.	.
8r	8r	.	8r	.	.	.	.	8r	.	.	.	.	8r	.	.	.	.	.	.	.	.
!!LO:LB:g=original
=26	=26	=26	=26	=26	=26	=26	=26	=26	=26	=26	=26	=26	=26	=26	=26	=26	=26	=26	=26	=26	=26
!	!	!	!	!	!	!	!	!	!	!	!	!	!	!	!	!	!	!LO:TX:t=P:problem=brak zakończenia ligatury	!	!	!
2.r	2.r	.	2.r	.	.	.	.	2.r	.	.	.	.	2.r	.	.	.	.	8cc\L]	.	.	.
.	.	.	.	.	.	.	.	.	.	.	.	.	.	.	.	.	.	8gg\J	.	.	.
.	.	.	.	.	.	.	.	.	.	.	.	.	.	.	.	.	.	8ff\	.	.	.
.	.	.	.	.	.	.	.	.	.	.	.	.	.	.	.	.	.	4.ee\	-mi-	.	.
=27	=27	=27	=27	=27	=27	=27	=27	=27	=27	=27	=27	=27	=27	=27	=27	=27	=27	=27	=27	=27	=27
[<2.C/	2.r	.	[<2.C/	Ju-	Ius-	.	.	2.r	.	.	.	.	2.r	.	.	.	.	4.ee\	-ni	.	.
.	.	.	.	.	.	.	.	.	.	.	.	.	.	.	.	.	.	4r	.	.	.
.	.	.	.	.	.	.	.	.	.	.	.	.	.	.	.	.	.	8r	.	.	.
=28	=28	=28	=28	=28	=28	=28	=28	=28	=28	=28	=28	=28	=28	=28	=28	=28	=28	=28	=28	=28	=28
8C/L]	2.r	.	8C/]	.	.	.	.	2.r	.	.	.	.	2.r	.	.	.	.	2.r	.	.	.
8D/	.	.	8D/	-stus	-tus	.	.	.	.	.	.	.	.	.	.	.	.	.	.	.	.
8C/J	.	.	8C/	ut	ut	.	.	.	.	.	.	.	.	.	.	.	.	.	.	.	.
8BB-/L	.	.	8BB-/	pal-	pal-	.	.	.	.	.	.	.	.	.	.	.	.	.	.	.	.
8GG/	.	.	8GG/	-ma	-ma	.	.	.	.	.	.	.	.	.	.	.	.	.	.	.	.
8AA/J	.	.	8AA/	flo-	flo-	.	.	.	.	.	.	.	.	.	.	.	.	.	.	.	.
=29	=29	=29	=29	=29	=29	=29	=29	=29	=29	=29	=29	=29	=29	=29	=29	=29	=29	=29	=29	=29	=29
2.FF/	4r	.	4.FF/	-re-	-re-	.	.	2.r	.	.	.	.	2.r	.	.	.	.	4r	.	.	.
.	8r	.	.	.	.	.	.	.	.	.	.	.	.	.	.	.	.	8r	.	.	.
!	!	!	!	!	!	!	!	!	!	!	!	!	!	!	!	!	!	!	!LO:MO:mod=Ius-	!	!
.	4f 4A/	.	8FF/	-bit	-bit	.	.	.	.	.	.	.	.	.	.	.	.	[>4.cc\	Ju-	.	.
.	.	.	8r	.	.	.	.	.	.	.	.	.	.	.	.	.	.	.	.	.	.
.	8f 8A/	.	8r	.	.	.	.	.	.	.	.	.	.	.	.	.	.	.	.	.	.
=30	=30	=30	=30	=30	=30	=30	=30	=30	=30	=30	=30	=30	=30	=30	=30	=30	=30	=30	=30	=30	=30
4F 4FF/	4e 4B- 4G/	.	2.r	.	.	.	.	2.r	.	.	.	.	2.r	.	.	.	.	8cc\]	.	.	.
!	!	!	!	!	!	!	!	!	!	!	!	!	!	!	!	!	!	!	!LO:MO:mod=-tus	!	!
.	.	.	.	.	.	.	.	.	.	.	.	.	.	.	.	.	.	8dd\	-stus	.	.
8F 8FF/	8e 8B- 8G/	.	.	.	.	.	.	.	.	.	.	.	.	.	.	.	.	8cc\	ut	.	.
4F 4FF/	4e 4B- 4G/	.	.	.	.	.	.	.	.	.	.	.	.	.	.	.	.	8b-\	pal-	.	.
.	.	.	.	.	.	.	.	.	.	.	.	.	.	.	.	.	.	8g/	-ma	.	.
8F 8FF/	8e 8B- 8G/	.	.	.	.	.	.	.	.	.	.	.	.	.	.	.	.	8a/	flo-	.	.
=31	=31	=31	=31	=31	=31	=31	=31	=31	=31	=31	=31	=31	=31	=31	=31	=31	=31	=31	=31	=31	=31
*rep	*	*	*	*	*	*	*	*	*	*	*	*	*	*	*	*	*	*	*	*	*
4F 4FF/	4f 4A/	.	2.r	.	.	.	.	4r	.	.	.	.	2.r	.	.	.	.	(>4f/	-re-	.	.
!	!	!	!	!	!	!	!	!	!	!	!	!	!	!	!	!	!	!LO:SIC:o=8dd\	!	!	!
8F 8FF/	8f 8A/	.	.	.	.	.	.	8r	.	.	.	.	.	.	.	.	.	8dd)	.	.	.
!	!	!	!	!	!	!	!	!	!	!	!	!	!	!	!	!	!	!LO:SIC:o=4cc\)	!	!	!
4F 4FF/	4f 4c 4A/	.	.	.	.	.	.	[>4.c\	Ju-	Ius-	.	.	.	.	.	.	.	4cc	-bit	.	.
8F 8FF/	8f 8c 8A/	.	.	.	.	.	.	.	.	.	.	.	.	.	.	.	.	8cc\	ut	.	.
*Xrep	*	*	*	*	*	*	*	*	*	*	*	*	*	*	*	*	*	*	*	*	*
=32	=32	=32	=32	=32	=32	=32	=32	=32	=32	=32	=32	=32	=32	=32	=32	=32	=32	=32	=32	=32	=32
*rep	*	*	*	*	*	*	*	*	*	*	*	*	*	*	*	*	*	*	*	*	*
4F 4FF/	4e 4B- 4G/	.	2.r	.	.	.	.	8c\]	.	.	.	.	2.r	.	.	.	.	8cc\L	pal	.	.
.	.	.	.	.	.	.	.	8d\	-stus	-tus	.	.	.	.	.	.	.	8b-\	.	.	.
8F 8FF/	8e 8B- 8G/	.	.	.	.	.	.	8c\	ut	ut	.	.	.	.	.	.	.	8a\J	.	.	.
*	*rep	*	*	*	*	*	*	*	*	*	*	*	*	*	*	*	*	*	*	*	*
4F 4FF/	4e 4B- 4G/	.	.	.	.	.	.	8B-\	pal-	pal-	.	.	.	.	.	.	.	8g/L	ma	.	.
.	.	.	.	.	.	.	.	8c\	-ma	-ma	.	.	.	.	.	.	.	8a/J	.	.	.
8F 8FF/	8e 8B- 8G/	.	.	.	.	.	.	8B-\	flo-	flo-	.	.	.	.	.	.	.	8g/	flo-	.	.
*Xrep	*Xrep	*	*	*	*	*	*	*	*	*	*	*	*	*	*	*	*	*	*	*	*
=33	=33	=33	=33	=33	=33	=33	=33	=33	=33	=33	=33	=33	=33	=33	=33	=33	=33	=33	=33	=33	=33
4F 4FF/	4f 4A/	.	4r	.	.	.	.	4A/	-re-	-re-	.	.	4r	.	.	.	.	4.f/	-re-	.	.
8F 8FF/	8f 8A/	.	8r	.	.	.	.	8A/	-bit	-bit	.	.	8r	.	.	.	.	.	.	.	.
4D 4DD/	4a 4f/	.	[>4.D\	.	Ius-	.	.	[<4.A/	Ju-	Ius-	.	.	[<4.f/	Ju-	Ius-	.	.	8f/	-bit	.	.
.	.	.	.	.	.	.	.	.	.	.	.	.	.	.	.	.	.	8r	.	.	.
8D 8DD/	8a 8f/	.	.	.	.	.	.	.	.	.	.	.	.	.	.	.	.	8r	.	.	.
=34	=34	=34	=34	=34	=34	=34	=34	=34	=34	=34	=34	=34	=34	=34	=34	=34	=34	=34	=34	=34	=34
[>2.D [<2.DD/	8aL 8f/	.	8D\]	.	.	.	.	8A/]	.	.	.	.	8f/]	.	.	.	.	4r	.	.	.
.	8b- 8g/	.	8D\	.	-tus	.	.	8B-/	-stus	-tus	.	.	8g/	-stus	-tus	.	.	.	.	.	.
.	8aJ 8f/	.	8D\	.	ut	.	.	8A/	ut	ut	.	.	8f/	ut	ut	.	.	8r	.	.	.
.	8gL 8e/	.	8D\	.	pal	.	.	8G/	pal-	pal-	.	.	8e/	pal-	pal-	.	.	8r	.	.	.
.	8a 8f/	.	8D\	.	-ma	.	.	8A/	-ma	-ma	.	.	8f/	-ma	-ma	.	.	8a/	si-	.	.
.	8gJ 8e/	.	8D\	.	flo-	.	.	8G/	flo-	flo-	.	.	8e/	flo-	flo-	.	.	8a/	-cut	.	.
!!LO:PB:g=original
=35	=35	=35	=35	=35	=35	=35	=35	=35	=35	=35	=35	=35	=35	=35	=35	=35	=35	=35	=35	=35	=35
!LO:TX:t=P:problem=brak zakończenia ligatury	!	!	!	!	!	!	!	!	!	!	!	!	!	!	!	!	!	!	!	!	!
2.D] 2.DD/]	4f 4d/	.	4.D\	.	-re-	.	.	4.F/	-re-	-re-	.	.	4.d/	-re-	-re-	.	.	4.ff\	ce-	.	.
.	8f 8d/	.	.	.	.	.	.	.	.	.	.	.	.	.	.	.	.	.	.	.	.
.	4f 4d/	.	8D\	.	-bit	.	.	8F/	-bit	-bit	.	.	8d/	-bit	-bit	.	.	4ff\	-drus	.	.
.	.	.	8r	.	.	.	.	8r	.	.	.	.	8r	.	.	.	.	.	.	.	.
!	!	!	!	!	!	!	!	!	!	!	!	!	!	!	!	!	!	!	!LO:MO:mod=Li-	!	!
.	8f 8d/	.	8r	.	.	.	.	8r	.	.	.	.	8r	.	.	.	.	8ff\	li-	.	.
=36	=36	=36	=36	=36	=36	=36	=36	=36	=36	=36	=36	=36	=36	=36	=36	=36	=36	=36	=36	=36	=36
*	*^	*	*	*	*	*	*	*	*	*	*	*	*	*	*	*	*	*	*	*	*
*	*	*	*	*	*	*	*	*	*	*	*	*	*	*	*	*	*	*	*2\right	*	*	*
4.D 4.DD/	4.g/	2.Bn\	.	4D\	.	si-	.	.	4B\	.	si-	.	.	4g/	si-	si-	.	.	[>2.ff\	-ba-	.	.
.	.	.	.	8D\	.	-cut	.	.	8B\	.	-cut	.	.	8g/	-cut	-cut	.	.	.	.	.	.
4.D-X 4.DD-X/	4.a-X/	.	.	8D-X\	.	ce-	.	.	8B\	.	ce-	.	.	8a-X/	ce-	ce-	.	.	.	.	.	.
.	.	.	.	8D-\	.	-drus	.	.	8B\	.	-drus	.	.	8a-/	-drus	-drus	.	.	.	.	.	.
.	.	.	.	8D-\	.	Li-	.	.	8B\	.	Li-	.	.	8a-/	Li-	Li-	.	.	.	.	.	.
*	*v	*v	*	*	*	*	*	*	*	*	*	*	*	*	*	*	*	*	*	*	*	*
=37	=37	=37	=37	=37	=37	=37	=37	=37	=37	=37	=37	=37	=37	=37	=37	=37	=37	=37	=37	=37	=37
*	*	*	*	*	*	*	*	*2\right	*	*	*	*	*	*	*	*	*	*	*	*	*
[>2.C [<2.CC/	2.an 2.f 2.c/	.	[<2.C/	.	-ba-	.	.	(<2.c\	.	-ba-	.	.	(<2.an/	-ba-	-ba-	.	.	4.ff\]	.	.	.
.	.	.	.	.	.	.	.	.	.	.	.	.	.	.	.	.	.	4aa\	.	.	.
.	.	.	.	.	.	.	.	.	.	.	.	.	.	.	.	.	.	8ff\	.	.	.
=38	=38	=38	=38	=38	=38	=38	=38	=38	=38	=38	=38	=38	=38	=38	=38	=38	=38	=38	=38	=38	=38
2.C] 2.CC/]	2.g 2.d 2.B-X/	.	2.C/]	.	.	.	.	2.B-X\)	.	.	.	.	2.g/)	.	.	.	.	8cc\L	.	.	.
.	.	.	.	.	.	.	.	.	.	.	.	.	.	.	.	.	.	8dd\	.	.	.
.	.	.	.	.	.	.	.	.	.	.	.	.	.	.	.	.	.	8cc\J	.	.	.
.	.	.	.	.	.	.	.	.	.	.	.	.	.	.	.	.	.	8b-\L	.	.	.
.	.	.	.	.	.	.	.	.	.	.	.	.	.	.	.	.	.	8g\	.	.	.
.	.	.	.	.	.	.	.	.	.	.	.	.	.	.	.	.	.	8cc\J	.	.	.
=39	=39	=39	=39	=39	=39	=39	=39	=39	=39	=39	=39	=39	=39	=39	=39	=39	=39	=39	=39	=39	=39
4F 4FF/	4f 4A/	.	8C/	.	-ni	.	.	8A/	.	-ni	.	.	8f/	-ni	-ni	.	.	8a/	ni	.	.
.	.	.	8r	.	.	.	.	8r	.	.	.	.	8r	.	.	.	.	8r	.	.	.
!	!	!LO:DY:rj	!	!	!	!	!	!	!	!	!	!	!	!	!	!	!	!	!	!	!
8F 8FF/	8f 8c 8A/	f	8r	.	.	.	.	8r	.	.	.	.	8r	.	.	.	.	8r	.	.	.
!	!	!	!	!	!	!LO:DY:b:rj	!	!	!	!	!LO:DY:b:rj	!	!	!	!	!LO:DY:b:rj	!	!	!	!LO:DY:b:rj	!
4F 4FF/	4f 4c 4A/	.	8r	.	.	ff	.	8r	.	.	ff	.	8r	.	.	ff	.	8r	.	ff	.
!	!	!	!	!	!	!	!	!	!	!	!	!	!	!	!	!	!	!	!LO:MO:mod=si-	!	!
.	.	.	8c\	.	si-	.	ff	8c\	.	si-	.	ff	8cc\	.	si-	.	ff	8cc\	Si-	.	ff
8F 8FF/	8f 8c 8A/	.	8c\	.	-cut	.	.	8c\	.	-cut	.	.	8cc\	.	-cut	.	.	8cc\	-cut	.	.
=40	=40	=40	=40	=40	=40	=40	=40	=40	=40	=40	=40	=40	=40	=40	=40	=40	=40	=40	=40	=40	=40
*rep	*	*	*	*	*	*	*	*	*	*	*	*	*	*	*	*	*	*	*	*	*
4F 4FF/	4e 4B- 4G/	.	8c\L	.	ce-	.	.	8c\L	.	ce-	.	.	8cc\L	.	ce-	.	.	8cc\L	ce-	.	.
.	.	.	8d\	.	.	.	.	8d\	.	.	.	.	8dd\	.	.	.	.	8dd\	.	.	.
8F 8FF/	8e 8B- 8G/	.	8c\J	.	.	.	.	8c\J	.	.	.	.	8cc\J	.	.	.	.	8cc\J	.	.	.
4F 4FF/	4e 4B- 4G/	.	8B-\L	.	-drus	.	.	8B-\L	.	-drus	.	.	8b-\L	.	-drus	.	.	8b-/L	-drus	.	.
.	.	.	8G\J	.	.	.	.	8G\J	.	.	.	.	8g\J	.	.	.	.	8g/J	.	.	.
8F 8FF/	8e 8B- 8G/	.	8A\	.	Li-	.	.	8A\	.	Li-	.	.	8a\	.	Li-	.	.	8a/	Li-	.	.
*Xrep	*	*	*	*	*	*	*	*	*	*	*	*	*	*	*	*	*	*	*	*	*
=41	=41	=41	=41	=41	=41	=41	=41	=41	=41	=41	=41	=41	=41	=41	=41	=41	=41	=41	=41	=41	=41
*rep	*	*	*	*	*	*	*	*	*	*	*	*	*	*	*	*	*	*	*	*	*
4F 4FF/	4f 4c 4A/	.	(>4F\	.	-ba-	.	.	(>4F/	.	-ba-	.	.	(>4f/	.	-ba-	.	.	(>4f/	-ba-	.	.
8F 8FF/	8f 8c 8A/	.	8d\)	.	.	.	.	8d\)	.	.	.	.	8dd\)	.	.	.	.	8dd\)	.	.	.
4F 4FF/	4f 4c 4A/	.	8c\	.	-ni	.	.	8c\	.	-ni	.	.	8cc\	.	-ni	.	.	8cc\	-ni	.	.
.	.	.	8c\	.	si-	.	.	8c\	.	si-	.	.	8cc\	.	si-	.	.	8cc\	si-	.	.
8F 8FF/	8f 8c 8A/	.	8c\	.	-cut	.	.	8c\	.	-cut	.	.	8cc\	.	-cut	.	.	8cc\	-cut	.	.
*Xrep	*	*	*	*	*	*	*	*	*	*	*	*	*	*	*	*	*	*	*	*	*
=42	=42	=42	=42	=42	=42	=42	=42	=42	=42	=42	=42	=42	=42	=42	=42	=42	=42	=42	=42	=42	=42
*rep	*	*	*	*	*	*	*	*	*	*	*	*	*	*	*	*	*	*	*	*	*
4F 4FF/	4e 4B- 4G/	.	8c\L	.	ce-	.	.	8c\L	.	ce-	.	.	8cc\L	.	ce-	.	.	8cc\L	ce-	.	.
.	.	.	8B-\	.	.	.	.	8B-\	.	.	.	.	8b-\	.	.	.	.	8b-\	.	.	.
8F 8FF/	8e 8B- 8G/	.	8A\J	.	.	.	.	8A\J	.	.	.	.	8a\J	.	.	.	.	8a\J	.	.	.
4F 4FF/	4e 4B- 4G/	.	8G\L	.	-drus	.	.	8G/L	.	-drus	.	.	8g/L	.	-drus	.	.	8g/L	-drus	.	.
.	.	.	8A\J	.	.	.	.	8A/J	.	.	.	.	8a/J	.	.	.	.	8a/J	.	.	.
8F 8FF/	8e 8B- 8G/	.	8G\	.	Li-	.	.	8G/	.	Li-	.	.	8g/	.	Li-	.	.	8g/	Li-	.	.
*Xrep	*	*	*	*	*	*	*	*	*	*	*	*	*	*	*	*	*	*	*	*	*
!!LO:LB:g=original
=43	=43	=43	=43	=43	=43	=43	=43	=43	=43	=43	=43	=43	=43	=43	=43	=43	=43	=43	=43	=43	=43
!	!	!	!	!	!	!	!	!	!	!	!	!	!LO:SIC:o=[<4.f/	!	!	!	!	!LO:SIC:o=[<4.f/	!	!	!
4F 4FF/	4f 4A/	.	4.F\	.	-ba-	.	.	4.F/	ba-	ba-	.	.	4.f	.	-ba-	.	.	4.f	-ba-	.	.
8F 8FF/	8f 8A/	.	.	.	.	.	.	.	.	.	.	.	.	.	.	.	.	.	.	.	.
!	!	!	!	!	!	!	!	!	!	!	!	!	!LO:SIC:o=8f/]	!	!	!	!	!LO:SIC:o=8f/]	!	!	!
8FL 8FF\	8fL 8A/	.	8F\	.	-ni	.	.	8F/	-ni	-ni	.	.	8f	.	-ni	.	.	8f	ni	.	.
!	!	!	!	!	!	!LO:DY:b:rj	!	!	!	!	!LO:DY:b:rj	!	!	!	!	!LO:DY:b:rj	!	!	!	!LO:DY:b:rj	!
8B- 8BB-\	8f 8d/	.	8A\	.	si-	p	p	8d\	si-	si-	p	p	8d/	.	si-	p	p	8f/	si-	p	p
8GJ 8GG\	8b-J 8e/	.	8G\	.	-cut	.	.	8c\	-cut	-cut	.	.	8e/	.	-cut	.	.	8b-\	-cut	.	.
=44	=44	=44	=44	=44	=44	=44	=44	=44	=44	=44	=44	=44	=44	=44	=44	=44	=44	=44	=44	=44	=44
4F 4FF\	4a 4f/	.	[>4.F\	.	ce-	.	.	[>4.c\	ce-	ce-	.	.	[<4.f/	.	ce-	.	.	[<4.a/	ce-	.	.
8F 8FF\	8a 8f/	.	.	.	.	.	.	.	.	.	.	.	.	.	.	.	.	.	.	.	.
8FL 8FF\	8aL 8f/	.	8F\]	.	.	.	.	8c\]	.	.	.	.	8f/]	.	.	.	.	8a/]	.	.	.
8B- 8BB-\	8b- 8d/	.	8B-\	.	-drus	.	.	8d\	-drus	-drus	.	.	8d/	.	-drus	.	.	8b-/	-drus	.	.
8GJ 8GG\	8b-J 8e/	.	8G\	.	Li-	.	.	8c\	Li	Li	.	.	8e/	.	Li-	.	.	8b-/	Li-	.	.
=45	=45	=45	=45	=45	=45	=45	=45	=45	=45	=45	=45	=45	=45	=45	=45	=45	=45	=45	=45	=45	=45
[>4.F [<4.FF/	[>4.a [<4.f/	.	(>4.F\	.	-ba-	.	.	(>4.c\	.	-ba-	.	.	(4.f/	.	-ba-	.	.	(<4.a/	-ba-	.	.
8F]L 8FF\]	8a]L 8f/]	.	8F\L	.	.	.	.	8c\L	.	.	.	.	8f/L	.	.	.	.	8a/L	.	.	.
8B- 8BB-\	8b- 8d/	.	8B-\	.	.	.	.	8d\	.	.	.	.	8d/	.	.	.	.	8b-/	.	.	.
8GJ 8GG\	8ccJ 8e/	.	8G\J)	.	.	.	.	8c\J)	.	.	.	.	8e/J)	.	.	.	.	8cc/J)	.	.	.
=46	=46	=46	=46	=46	=46	=46	=46	=46	=46	=46	=46	=46	=46	=46	=46	=46	=46	=46	=46	=46	=46
[>2.F [<2.FF/	[>2.a [>2.f [<2.c/	.	4F\	.	-ni	.	.	4c\	.	-ni	.	.	4f/	.	-ni	.	.	4a/	ni	.	.
.	.	.	8F\	.	mul-	.	.	8c\	.	mul-	.	.	8f/	.	mul-	.	.	8a/	mul-	.	.
.	.	.	4F\	.	-ti-	.	.	4c\	.	-ti-	.	.	4f/	.	-ti-	.	.	4a/	-ti-	.	.
.	.	.	8F\	.	-pli-	.	.	8c\	.	-pli-	.	.	8f/	.	-pli-	.	.	8a/	-pli-	.	.
=47	=47	=47	=47	=47	=47	=47	=47	=47	=47	=47	=47	=47	=47	=47	=47	=47	=47	=47	=47	=47	=47
2.F] 2.FF/]	2.a_> 2.f_> 2.c/_<	.	4F\	.	-ca-	.	.	4c\	.	-ca-	.	.	4f/	.	-ca-	.	.	4a/	-ca-	.	.
.	.	.	8F\	.	-bi-	.	.	8c\	.	-bi-	.	.	8f/	.	-bi-	.	.	8a/	-bi-	.	.
.	.	.	4F\	.	-tur	.	.	4c\	.	-tur	.	.	4f/	.	-tur	.	.	4a/	-tur	.	.
.	.	.	8F\	.	in	.	.	8c\	.	in	.	.	8a/	.	in	.	.	8cc\	in	.	.
=48	=48	=48	=48	=48	=48	=48	=48	=48	=48	=48	=48	=48	=48	=48	=48	=48	=48	=48	=48	=48	=48
!	!	!	!	!	!	!	!	!	!	!	!	!	!	!	!	!	!	!LO:TX:a:t=Solo.	!	!	!
8C 8CC/	8a] 8f] 8c/]	.	8C/	.	do-	.	.	8c\	do-	do-	.	.	8a/	do-	do-	.	.	16ff\LL	do-	.	.
.	.	.	.	.	.	.	.	.	.	.	.	.	.	.	.	.	.	16aa\	.	.	.
8r	8r	.	8r	.	.	.	.	8r	.	.	.	.	8r	.	.	.	.	16gg\	.	.	.
.	.	.	.	.	.	.	.	.	.	.	.	.	.	.	.	.	.	16ff\	.	.	.
8r	8r	.	8r	.	.	.	.	8r	.	.	.	.	8r	.	.	.	.	16ee\	.	.	.
.	.	.	.	.	.	.	.	.	.	.	.	.	.	.	.	.	.	16dd\JJ	.	.	.
4r	4r	.	4r	.	.	.	.	4r	.	.	.	.	4r	.	.	.	.	16cc\LL	.	.	.
.	.	.	.	.	.	.	.	.	.	.	.	.	.	.	.	.	.	16bn\	.	.	.
.	.	.	.	.	.	.	.	.	.	.	.	.	.	.	.	.	.	16dd\	.	.	.
.	.	.	.	.	.	.	.	.	.	.	.	.	.	.	.	.	.	16cc\	.	.	.
8r	8r	.	8r	.	.	.	.	8r	.	.	.	.	8r	.	.	.	.	16b-X\	.	.	.
.	.	.	.	.	.	.	.	.	.	.	.	.	.	.	.	.	.	16a\JJ	.	.	.
=49	=49	=49	=49	=49	=49	=49	=49	=49	=49	=49	=49	=49	=49	=49	=49	=49	=49	=49	=49	=49	=49
*	*	*	*	*	*	*	*	*	*	*	*	*	*	*	*	*	*	*^	*	*	*
8C 8CC/	8b- 8g 8e 8c/	.	8C/	.	-mo	.	.	8B-\	-mo	-mo	.	.	8e/	-mo	-mo	.	.	16g\LL	4ryy	.	.	.
.	.	.	.	.	.	.	.	.	.	.	.	.	.	.	.	.	.	16b-\	.	.	.	.
8r	8r	.	8r	.	.	.	.	8r	.	.	.	.	8r	.	.	.	.	16cc\	.	.	.	.
.	.	.	.	.	.	.	.	.	.	.	.	.	.	.	.	.	.	16ee\	.	.	.	.
8r	8r	.	8r	.	.	.	.	8r	.	.	.	.	8r	.	.	.	.	16gg\	8ryy	.	.	.
.	.	.	.	.	.	.	.	.	.	.	.	.	.	.	.	.	.	16ee\JJ	.	.	.	.
4r	4r	.	4r	.	.	.	.	4r	.	.	.	.	4r	.	.	.	.	4bb-/	4cc\	.	.	.
8r	8r	.	8r	.	.	.	.	8r	.	.	.	.	8r	.	.	.	.	8ee/	8ee\	-mo	.	.
*	*	*	*	*	*	*	*	*	*	*	*	*	*	*	*	*	*	*v	*v	*	*	*
=50	=50	=50	=50	=50	=50	=50	=50	=50	=50	=50	=50	=50	=50	=50	=50	=50	=50	=50	=50	=50	=50
*	*	*	*2\right	*	*	*	*	*	*	*	*	*	*	*	*	*	*	*	*	*	*
!	!	!	!	!	!	!	!	!	!	!	!	!	!	!	!	!	!	!LO:TX:a:t=tutti	!	!	!
!	!	!	!	!	!	!LO:DY:b:rj	!	!	!	!	!LO:DY:b:rj	!	!	!	!LO:MO:mod=Do-	!LO:DY:b:rj	!	!	!LO:MO:mod=Do-	!LO:DY:b:rj	!
2.r	2.r	.	2.F\	.	Do-	p	p	2.c\	.	Do-	p	p	2.a/	do	do-	p	p	2.ff\	do-	p	p
!!LO:PB:g=original
=51	=51	=51	=51	=51	=51	=51	=51	=51	=51	=51	=51	=51	=51	=51	=51	=51	=51	=51	=51	=51	=51
2.r	2.r	.	2.BB-/	.	-mi-	.	.	2.d\	mi--	mi-	.	.	2.b-/	.	-mi-	.	.	2.ff\	-mi-	.	.
=52	=52	=52	=52	=52	=52	=52	=52	=52	=52	=52	=52	=52	=52	=52	=52	=52	=52	=52	=52	=52	=52
!	!	!LO:DY:rj	!	!	!	!	!	!	!	!	!	!	!	!	!	!	!	!	!	!	!
[>2.c [>2.A [<2.F\	8ccc\L	p	8F\	.	-ni	.	.	8c\	-ni	-ni	.	.	8a/	.	-ni	.	.	8ff\	-ni	.	.
.	8ddd\	.	8r	.	.	.	.	8r	.	.	.	.	8r	.	.	.	.	8r	.	.	.
.	8ccc\J	.	8r	.	.	.	.	8r	.	.	.	.	8r	.	.	.	.	8r	.	.	.
.	8aa\L	.	4r	.	.	.	.	4r	.	.	.	.	4r	.	.	.	.	4r	.	.	.
.	8ee\	.	.	.	.	.	.	.	.	.	.	.	.	.	.	.	.	.	.	.	.
.	8ff\J	.	8r	.	.	.	.	8r	.	.	.	.	8r	.	.	.	.	8r	.	.	.
=53	=53	=53	=53	=53	=53	=53	=53	=53	=53	=53	=53	=53	=53	=53	=53	=53	=53	=53	=53	=53	=53
4.c] 4.A] 4.F\]	8cc\L	.	2.r	.	.	.	.	2.r	.	.	.	.	2.r	.	.	.	.	2.r	.	.	.
.	8dd\	.	.	.	.	.	.	.	.	.	.	.	.	.	.	.	.	.	.	.	.
.	8cc\J	.	.	.	.	.	.	.	.	.	.	.	.	.	.	.	.	.	.	.	.
4r	8a/L	.	.	.	.	.	.	.	.	.	.	.	.	.	.	.	.	.	.	.	.
.	8e/	.	.	.	.	.	.	.	.	.	.	.	.	.	.	.	.	.	.	.	.
8r	8f/J	.	.	.	.	.	.	.	.	.	.	.	.	.	.	.	.	.	.	.	.
=54	=54	=54	=54	=54	=54	=54	=54	=54	=54	=54	=54	=54	=54	=54	=54	=54	=54	=54	=54	=54	=54
2.r	2.c/	.	2.r	.	.	.	.	2.r	.	.	.	.	2.r	.	.	.	.	2.r	.	.	.
=55	=55	=55	=55	=55	=55	=55	=55	=55	=55	=55	=55	=55	=55	=55	=55	=55	=55	=55	=55	=55	=55
!	!	!	!	!	!	!LO:DY:b:rj	!	!	!	!	!LO:DY:b:rj	!	!	!	!	!LO:DY:b:rj	!	!	!	!LO:DY:b:rj	!
2.B- 2.G 2.E;>\	2.cc 2.e;>\	.	2.C;>/	.	A-	p	p	2.B-;>\	A-	A-	p	p	2.e;>/	.	A-	p	p	2.cc;>\	A-	p	p
=56	=56	=56	=56	=56	=56	=56	=56	=56	=56	=56	=56	=56	=56	=56	=56	=56	=56	=56	=56	=56	=56
4.A 4.F;>\	4.f;>/	.	4.F;>\	.	-men	.	.	4.A;>/	-men	-men	.	.	4.f;>/	.	-men	.	.	4.f;>/	-men	.	.
4r	4r	.	4r	.	.	.	.	4r	.	.	.	.	4r	.	.	.	.	4r	.	.	.
8r	8r	.	8r	.	.	.	.	8r	.	.	.	.	8r	.	.	.	.	8r	.	.	.
!!LO:LB:g=original
==	==	==	==	==	==	==	==	==	==	==	==	==	==	==	==	==	==	==	==	==	==
*-	*-	*-	*-	*-	*-	*-	*-	*-	*-	*-	*-	*-	*-	*-	*-	*-	*-	*-	*-	*-	*-
!!LO:MO:ori
!!!system-decoration: s1,s2,s3,s4[(s5,s6)]
!!!RDF**kern: < = below
!!!RDF**kern: > = above
!!LO:MO:mod
!! !!!system-decoration: [(s1,s2,s3,s4)]{(s5,s6)}
!!LO:MO:end
!!!filter-modern: sic -sq | autostem -r | tie -s | shed -k -e "s/[<>]//g" | shed -e "s/LO:DY:(a|b|rj)/LO:dy:$1/L" | shed -e "s/^(\d+[\/\\]right)/$1yy/I; s/^(\d+[\/\\]left)/$1yy/I" | shed -e "s/:t=P:/:T=P:/L" | shed -e "s/^(X?)rep$/$1REP/I" | modori -m
!!!ENC: Marcin Jachim
!!!END: 2021-05-13
!!!EED: Marta Chmielewska
!!!EEV: 2021-05-27
!!!ENC-modern: Marta Lawrence
!!!END-modern: 2022-07-09
